X: 22744
T: Lancers, The
R: jig
M: 6/8
K: Dmajor
|:DFA dcd|e2d B3|DFA DFA|G2F E3|DFA dcd|e2d B3|ABA GFE|DFA d3:|
|:f2e d2A|Bcd A3|~d3 ~e3|~f3 ~g3|f2e d2A|Bcd A3|ABA GFE|DFA d3:|

